X: 36
T: Steal-partner Dance Song (b)
C: Anon.
%%abc-version 2.0
%%abcx-abcm2ps-target-version 5.9.1 (29 Sep 2008)
%%abc-creator hum2abc beta
%%abcx-conversion-date 2020/08/10 20:56:09
%%abc-copyright Electronic Copyright 2000 David Huron
%%abc-edited-by David Huron
%%abcx-initial-encoding-date August 28, 2000
%%humdrum-veritas 247133203
%%humdrum-veritas-data 1922508190
%%linebreak <none>
%%barnumbers 0
L: 1/8
M: 2/4
Q: 1/4=92
K: G clef=bass
G,2G, =F, | 
E, E, E, z | 
G, F,- F, E, | 
F,2F, E,/ z/ | 
F,2G, F, | 
E, E, E, z | 
E, E,- E, B,, | 
E, E,E,2 | 
F,2F, E, | 
F, F, B, z | 
E, E,- E, B,, | 
E, E, E, z :|]  


